svgs/solid/chart-scatter-bubble.svg

<svg xmlns="http://www.w3.org/2000/svg" viewBox="0 0 512 512"><!--! Font Awesome Pro 6.2.0 by @fontawesome - https://fontawesome.com License - https://fontawesome.com/license (Commercial License) Copyright 2022 Fonticons, Inc. --><path d="M32 32c17.7 0 32 14.3 32 32V400c0 8.8 7.2 16 16 16H480c17.7 0 32 14.3 32 32s-14.3 32-32 32H80c-44.2 0-80-35.8-80-80V64C0 46.3 14.3 32 32 32zM224 304c0 26.5-21.5 48-48 48s-48-21.5-48-48s21.5-48 48-48s48 21.5 48 48zm128 48c-35.3 0-64-28.7-64-64s28.7-64 64-64s64 28.7 64 64s-28.7 64-64 64zM288 176c0 26.5-21.5 48-48 48s-48-21.5-48-48s21.5-48 48-48s48 21.5 48 48zm96 16c-35.3 0-64-28.7-64-64s28.7-64 64-64s64 28.7 64 64s-28.7 64-64 64z"/></svg>

<svg xmlns="http://www.w3.org/2000/svg" viewBox="0 0 512 512"><!--! Font Awesome Pro 6.1.2 by @fontawesome - https://fontawesome.com License - https://fontawesome.com/license (Commercial License) Copyright 2022 Fonticons, Inc. --><path d="M32 32C49.67 32 64 46.33 64 64V400C64 408.8 71.16 416 80 416H480C497.7 416 512 430.3 512 448C512 465.7 497.7 480 480 480H80C35.82 480 0 444.2 0 400V64C0 46.33 14.33 32 32 32zM224 304C224 330.5 202.5 352 176 352C149.5 352 128 330.5 128 304C128 277.5 149.5 256 176 256C202.5 256 224 277.5 224 304zM288 288C288 252.7 316.7 224 352 224C387.3 224 416 252.7 416 288C416 323.3 387.3 352 352 352C316.7 352 288 323.3 288 288zM288 176C288 202.5 266.5 224 240 224C213.5 224 192 202.5 192 176C192 149.5 213.5 128 240 128C266.5 128 288 149.5 288 176zM320 128C320 92.65 348.7 64 384 64C419.3 64 448 92.65 448 128C448 163.3 419.3 192 384 192C348.7 192 320 163.3 320 128z"/></svg>
